DJI_0107.CUBE
#Created by: Adobe Photoshop Export Color Lookup Plugin
TITLE "DJI_0107.JPG"
#LUT size
LUT_3D_SIZE 6
#data domain
DOMAIN_MIN 0.0 0.0 0.0
DOMAIN_MAX 1.0 1.0 1.0
#LUT data points
0.000000 0.000000 0.000000
0.385956 0.000000 0.000000
0.343964 0.000000 0.000000
0.068237 0.000000 0.000000
0.153992 0.000000 0.000000
1.000000 0.000000 0.000000
0.000000 0.385956 0.000000
0.385956 0.385956 0.000000
0.343964 0.385956 0.000000
0.068237 0.385956 0.000000
0.153992 0.385956 0.000000
1.000000 0.385956 0.000000
0.000000 0.343964 0.000000
0.385956 0.343964 0.000000
0.343964 0.343964 0.000000
0.068237 0.343964 0.000000
0.153992 0.343964 0.000000
1.000000 0.343964 0.000000
0.000000 0.068237 0.000000
0.385956 0.068237 0.000000
0.343964 0.068237 0.000000
0.068237 0.068237 0.000000
0.153992 0.068237 0.000000
1.000000 0.068237 0.000000
0.000000 0.153992 0.000000
0.385956 0.153992 0.000000
0.343964 0.153992 0.000000
0.068237 0.153992 0.000000
0.153992 0.153992 0.000000
1.000000 0.153992 0.000000
0.000000 1.000000 0.000000
0.385956 1.000000 0.000000
0.343964 1.000000 0.000000
0.068237 1.000000 0.000000
0.153992 1.000000 0.000000
1.000000 1.000000 0.000000
0.000000 0.000000 0.385956
0.385956 0.000000 0.385956
0.343964 0.000000 0.385956
0.068237 0.000000 0.385956
0.153992 0.000000 0.385956
1.000000 0.000000 0.385956
0.000000 0.385956 0.385956
0.385956 0.385956 0.385956
0.343964 0.385956 0.385956
0.068237 0.385956 0.385956
0.153992 0.385956 0.385956
1.000000 0.385956 0.385956
0.000000 0.343964 0.385956
0.385956 0.343964 0.385956
0.343964 0.343964 0.385956
0.068237 0.343964 0.385956
0.153992 0.343964 0.385956
1.000000 0.343964 0.385956
0.000000 0.068237 0.385956
0.385956 0.068237 0.385956
0.343964 0.068237 0.385956
0.068237 0.068237 0.385956
0.153992 0.068237 0.385956
1.000000 0.068237 0.385956
0.000000 0.153992 0.385956
0.385956 0.153992 0.385956
0.343964 0.153992 0.385956
0.068237 0.153992 0.385956
0.153992 0.153992 0.385956
1.000000 0.153992 0.385956
0.000000 1.000000 0.385956
0.385956 1.000000 0.385956
0.343964 1.000000 0.385956
0.068237 1.000000 0.385956
0.153992 1.000000 0.385956
1.000000 1.000000 0.385956
0.000000 0.000000 0.343964
0.385956 0.000000 0.343964
0.343964 0.000000 0.343964
0.068237 0.000000 0.343964
0.153992 0.000000 0.343964
1.000000 0.000000 0.343964
0.000000 0.385956 0.343964
0.385956 0.385956 0.343964
0.343964 0.385956 0.343964
0.068237 0.385956 0.343964
0.153992 0.385956 0.343964
1.000000 0.385956 0.343964
0.000000 0.343964 0.343964
0.385956 0.343964 0.343964
0.343964 0.343964 0.343964
0.068237 0.343964 0.343964
0.153992 0.343964 0.343964
1.000000 0.343964 0.343964
0.000000 0.068237 0.343964
0.385956 0.068237 0.343964
0.343964 0.068237 0.343964
0.068237 0.068237 0.343964
0.153992 0.068237 0.343964
1.000000 0.068237 0.343964
0.000000 0.153992 0.343964
0.385956 0.153992 0.343964
0.343964 0.153992 0.343964
0.068237 0.153992 0.343964
0.153992 0.153992 0.343964
1.000000 0.153992 0.343964
0.000000 1.000000 0.343964
0.385956 1.000000 0.343964
0.343964 1.000000 0.343964
0.068237 1.000000 0.343964
0.153992 1.000000 0.343964
1.000000 1.000000 0.343964
0.000000 0.000000 0.068237
0.385956 0.000000 0.068237
0.343964 0.000000 0.068237
0.068237 0.000000 0.068237
0.153992 0.000000 0.068237
1.000000 0.000000 0.068237
0.000000 0.385956 0.068237
0.385956 0.385956 0.068237
0.343964 0.385956 0.068237
0.068237 0.385956 0.068237
0.153992 0.385956 0.068237
1.000000 0.385956 0.068237
0.000000 0.343964 0.068237
0.385956 0.343964 0.068237
0.343964 0.343964 0.068237
0.068237 0.343964 0.068237
0.153992 0.343964 0.068237
1.000000 0.343964 0.068237
0.000000 0.068237 0.068237
0.385956 0.068237 0.068237
0.343964 0.068237 0.068237
0.068237 0.068237 0.068237
0.153992 0.068237 0.068237
1.000000 0.068237 0.068237
0.000000 0.153992 0.068237
0.385956 0.153992 0.068237
0.343964 0.153992 0.068237
0.068237 0.153992 0.068237
0.153992 0.153992 0.068237
1.000000 0.153992 0.068237
0.000000 1.000000 0.068237
0.385956 1.000000 0.068237
0.343964 1.000000 0.068237
0.068237 1.000000 0.068237
0.153992 1.000000 0.068237
1.000000 1.000000 0.068237
0.000000 0.000000 0.153992
0.385956 0.000000 0.153992
0.343964 0.000000 0.153992
0.068237 0.000000 0.153992
0.153992 0.000000 0.153992
1.000000 0.000000 0.153992
0.000000 0.385956 0.153992
0.385956 0.385956 0.153992
0.343964 0.385956 0.153992
0.068237 0.385956 0.153992
0.153992 0.385956 0.153992
1.000000 0.385956 0.153992
0.000000 0.343964 0.153992
0.385956 0.343964 0.153992
0.343964 0.343964 0.153992
0.068237 0.343964 0.153992
0.153992 0.343964 0.153992
1.000000 0.343964 0.153992
0.000000 0.068237 0.153992
0.385956 0.068237 0.153992
0.343964 0.068237 0.153992
0.068237 0.068237 0.153992
0.153992 0.068237 0.153992
1.000000 0.068237 0.153992
0.000000 0.153992 0.153992
0.385956 0.153992 0.153992
0.343964 0.153992 0.153992
0.068237 0.153992 0.153992
0.153992 0.153992 0.153992
1.000000 0.153992 0.153992
0.000000 1.000000 0.153992
0.385956 1.000000 0.153992
0.343964 1.000000 0.153992
0.068237 1.000000 0.153992
0.153992 1.000000 0.153992
1.000000 1.000000 0.153992
0.000000 0.000000 1.000000
0.385956 0.000000 1.000000
0.343964 0.000000 1.000000
0.068237 0.000000 1.000000
0.153992 0.000000 1.000000
1.000000 0.000000 1.000000
0.000000 0.385956 1.000000
0.385956 0.385956 1.000000
0.343964 0.385956 1.000000
0.068237 0.385956 1.000000
0.153992 0.385956 1.000000
1.000000 0.385956 1.000000
0.000000 0.343964 1.000000
0.385956 0.343964 1.000000
0.343964 0.343964 1.000000
0.068237 0.343964 1.000000
0.153992 0.343964 1.000000
1.000000 0.343964 1.000000
0.000000 0.068237 1.000000
0.385956 0.068237 1.000000
0.343964 0.068237 1.000000
0.068237 0.068237 1.000000
0.153992 0.068237 1.000000
1.000000 0.068237 1.000000
0.000000 0.153992 1.000000
0.385956 0.153992 1.000000
0.343964 0.153992 1.000000
0.068237 0.153992 1.000000
0.153992 0.153992 1.000000
1.000000 0.153992 1.000000
0.000000 1.000000 1.000000
0.385956 1.000000 1.000000
0.343964 1.000000 1.000000
0.068237 1.000000 1.000000
0.153992 1.000000 1.000000
1.000000 1.000000 1.000000
