DJI_0107.CUBE
#Created by: Adobe Photoshop Export Color Lookup Plugin
TITLE "DJI_0107.JPG"
#LUT size
LUT_3D_SIZE 16
#data domain
DOMAIN_MIN 0.0 0.0 0.0
DOMAIN_MAX 1.0 1.0 1.0
#LUT data points
0.000000 0.000000 0.000000
0.152466 0.000000 0.000000
0.287018 0.000000 0.000000
0.385956 0.000000 0.000000
0.431396 0.000000 0.000000
0.412170 0.000000 0.000000
0.343964 0.000000 0.000000
0.249054 0.000000 0.000000
0.149750 0.000000 0.000000
0.068237 0.000000 0.000000
0.026947 0.000000 0.000000
0.048126 0.000000 0.000000
0.153992 0.000000 0.000000
0.364014 0.000000 0.000000
0.660248 0.000000 0.000000
1.000000 0.000000 0.000000
0.000000 0.152466 0.000000
0.152466 0.152466 0.000000
0.287018 0.152466 0.000000
0.385956 0.152466 0.000000
0.431396 0.152466 0.000000
0.412170 0.152466 0.000000
0.343964 0.152466 0.000000
0.249054 0.152466 0.000000
0.149750 0.152466 0.000000
0.068237 0.152466 0.000000
0.026947 0.152466 0.000000
0.048126 0.152466 0.000000
0.153992 0.152466 0.000000
0.364014 0.152466 0.000000
0.660248 0.152466 0.000000
1.000000 0.152466 0.000000
0.000000 0.287018 0.000000
0.152466 0.287018 0.000000
0.287018 0.287018 0.000000
0.385956 0.287018 0.000000
0.431396 0.287018 0.000000
0.412170 0.287018 0.000000
0.343964 0.287018 0.000000
0.249054 0.287018 0.000000
0.149750 0.287018 0.000000
0.068237 0.287018 0.000000
0.026947 0.287018 0.000000
0.048126 0.287018 0.000000
0.153992 0.287018 0.000000
0.364014 0.287018 0.000000
0.660248 0.287018 0.000000
1.000000 0.287018 0.000000
0.000000 0.385956 0.000000
0.152466 0.385956 0.000000
0.287018 0.385956 0.000000
0.385956 0.385956 0.000000
0.431396 0.385956 0.000000
0.412170 0.385956 0.000000
0.343964 0.385956 0.000000
0.249054 0.385956 0.000000
0.149750 0.385956 0.000000
0.068237 0.385956 0.000000
0.026947 0.385956 0.000000
0.048126 0.385956 0.000000
0.153992 0.385956 0.000000
0.364014 0.385956 0.000000
0.660248 0.385956 0.000000
1.000000 0.385956 0.000000
0.000000 0.431396 0.000000
0.152466 0.431396 0.000000
0.287018 0.431396 0.000000
0.385956 0.431396 0.000000
0.431396 0.431396 0.000000
0.412170 0.431396 0.000000
0.343964 0.431396 0.000000
0.249054 0.431396 0.000000
0.149750 0.431396 0.000000
0.068237 0.431396 0.000000
0.026947 0.431396 0.000000
0.048126 0.431396 0.000000
0.153992 0.431396 0.000000
0.364014 0.431396 0.000000
0.660248 0.431396 0.000000
1.000000 0.431396 0.000000
0.000000 0.412170 0.000000
0.152466 0.412170 0.000000
0.287018 0.412170 0.000000
0.385956 0.412170 0.000000
0.431396 0.412170 0.000000
0.412170 0.412170 0.000000
0.343964 0.412170 0.000000
0.249054 0.412170 0.000000
0.149750 0.412170 0.000000
0.068237 0.412170 0.000000
0.026947 0.412170 0.000000
0.048126 0.412170 0.000000
0.153992 0.412170 0.000000
0.364014 0.412170 0.000000
0.660248 0.412170 0.000000
1.000000 0.412170 0.000000
0.000000 0.343964 0.000000
0.152466 0.343964 0.000000
0.287018 0.343964 0.000000
0.385956 0.343964 0.000000
0.431396 0.343964 0.000000
0.412170 0.343964 0.000000
0.343964 0.343964 0.000000
0.249054 0.343964 0.000000
0.149750 0.343964 0.000000
0.068237 0.343964 0.000000
0.026947 0.343964 0.000000
0.048126 0.343964 0.000000
0.153992 0.343964 0.000000
0.364014 0.343964 0.000000
0.660248 0.343964 0.000000
1.000000 0.343964 0.000000
0.000000 0.249054 0.000000
0.152466 0.249054 0.000000
0.287018 0.249054 0.000000
0.385956 0.249054 0.000000
0.431396 0.249054 0.000000
0.412170 0.249054 0.000000
0.343964 0.249054 0.000000
0.249054 0.249054 0.000000
0.149750 0.249054 0.000000
0.068237 0.249054 0.000000
0.026947 0.249054 0.000000
0.048126 0.249054 0.000000
0.153992 0.249054 0.000000
0.364014 0.249054 0.000000
0.660248 0.249054 0.000000
1.000000 0.249054 0.000000
0.000000 0.149750 0.000000
0.152466 0.149750 0.000000
0.287018 0.149750 0.000000
0.385956 0.149750 0.000000
0.431396 0.149750 0.000000
0.412170 0.149750 0.000000
0.343964 0.149750 0.000000
0.249054 0.149750 0.000000
0.149750 0.149750 0.000000
0.068237 0.149750 0.000000
0.026947 0.149750 0.000000
0.048126 0.149750 0.000000
0.153992 0.149750 0.000000
0.364014 0.149750 0.000000
0.660248 0.149750 0.000000
1.000000 0.149750 0.000000
0.000000 0.068237 0.000000
0.152466 0.068237 0.000000
0.287018 0.068237 0.000000
0.385956 0.068237 0.000000
0.431396 0.068237 0.000000
0.412170 0.068237 0.000000
0.343964 0.068237 0.000000
0.249054 0.068237 0.000000
0.149750 0.068237 0.000000
0.068237 0.068237 0.000000
0.026947 0.068237 0.000000
0.048126 0.068237 0.000000
0.153992 0.068237 0.000000
0.364014 0.068237 0.000000
0.660248 0.068237 0.000000
1.000000 0.068237 0.000000
0.000000 0.026947 0.000000
0.152466 0.026947 0.000000
0.287018 0.026947 0.000000
0.385956 0.026947 0.000000
0.431396 0.026947 0.000000
0.412170 0.026947 0.000000
0.343964 0.026947 0.000000
0.249054 0.026947 0.000000
0.149750 0.026947 0.000000
0.068237 0.026947 0.000000
0.026947 0.026947 0.000000
0.048126 0.026947 0.000000
0.153992 0.026947 0.000000
0.364014 0.026947 0.000000
0.660248 0.026947 0.000000
1.000000 0.026947 0.000000
0.000000 0.048126 0.000000
0.152466 0.048126 0.000000
0.287018 0.048126 0.000000
0.385956 0.048126 0.000000
0.431396 0.048126 0.000000
0.412170 0.048126 0.000000
0.343964 0.048126 0.000000
0.249054 0.048126 0.000000
0.149750 0.048126 0.000000
0.068237 0.048126 0.000000
0.026947 0.048126 0.000000
0.048126 0.048126 0.000000
0.153992 0.048126 0.000000
0.364014 0.048126 0.000000
0.660248 0.048126 0.000000
1.000000 0.048126 0.000000
0.000000 0.153992 0.000000
0.152466 0.153992 0.000000
0.287018 0.153992 0.000000
0.385956 0.153992 0.000000
0.431396 0.153992 0.000000
0.412170 0.153992 0.000000
0.343964 0.153992 0.000000
0.249054 0.153992 0.000000
0.149750 0.153992 0.000000
0.068237 0.153992 0.000000
0.026947 0.153992 0.000000
0.048126 0.153992 0.000000
0.153992 0.153992 0.000000
0.364014 0.153992 0.000000
0.660248 0.153992 0.000000
1.000000 0.153992 0.000000
0.000000 0.364014 0.000000
0.152466 0.364014 0.000000
0.287018 0.364014 0.000000
0.385956 0.364014 0.000000
0.431396 0.364014 0.000000
0.412170 0.364014 0.000000
0.343964 0.364014 0.000000
0.249054 0.364014 0.000000
0.149750 0.364014 0.000000
0.068237 0.364014 0.000000
0.026947 0.364014 0.000000
0.048126 0.364014 0.000000
0.153992 0.364014 0.000000
0.364014 0.364014 0.000000
0.660248 0.364014 0.000000
1.000000 0.364014 0.000000
0.000000 0.660248 0.000000
0.152466 0.660248 0.000000
0.287018 0.660248 0.000000
0.385956 0.660248 0.000000
0.431396 0.660248 0.000000
0.412170 0.660248 0.000000
0.343964 0.660248 0.000000
0.249054 0.660248 0.000000
0.149750 0.660248 0.000000
0.068237 0.660248 0.000000
0.026947 0.660248 0.000000
0.048126 0.660248 0.000000
0.153992 0.660248 0.000000
0.364014 0.660248 0.000000
0.660248 0.660248 0.000000
1.000000 0.660248 0.000000
0.000000 1.000000 0.000000
0.152466 1.000000 0.000000
0.287018 1.000000 0.000000
0.385956 1.000000 0.000000
0.431396 1.000000 0.000000
0.412170 1.000000 0.000000
0.343964 1.000000 0.000000
0.249054 1.000000 0.000000
0.149750 1.000000 0.000000
0.068237 1.000000 0.000000
0.026947 1.000000 0.000000
0.048126 1.000000 0.000000
0.153992 1.000000 0.000000
0.364014 1.000000 0.000000
0.660248 1.000000 0.000000
1.000000 1.000000 0.000000
0.000000 0.000000 0.152466
0.152466 0.000000 0.152466
0.287018 0.000000 0.152466
0.385956 0.000000 0.152466
0.431396 0.000000 0.152466
0.412170 0.000000 0.152466
0.343964 0.000000 0.152466
0.249054 0.000000 0.152466
0.149750 0.000000 0.152466
0.068237 0.000000 0.152466
0.026947 0.000000 0.152466
0.048126 0.000000 0.152466
0.153992 0.000000 0.152466
0.364014 0.000000 0.152466
0.660248 0.000000 0.152466
1.000000 0.000000 0.152466
0.000000 0.152466 0.152466
0.152466 0.152466 0.152466
0.287018 0.152466 0.152466
0.385956 0.152466 0.152466
0.431396 0.152466 0.152466
0.412170 0.152466 0.152466
0.343964 0.152466 0.152466
0.249054 0.152466 0.152466
0.149750 0.152466 0.152466
0.068237 0.152466 0.152466
0.026947 0.152466 0.152466
0.048126 0.152466 0.152466
0.153992 0.152466 0.152466
0.364014 0.152466 0.152466
0.660248 0.152466 0.152466
1.000000 0.152466 0.152466
0.000000 0.287018 0.152466
0.152466 0.287018 0.152466
0.287018 0.287018 0.152466
0.385956 0.287018 0.152466
0.431396 0.287018 0.152466
0.412170 0.287018 0.152466
0.343964 0.287018 0.152466
0.249054 0.287018 0.152466
0.149750 0.287018 0.152466
0.068237 0.287018 0.152466
0.026947 0.287018 0.152466
0.048126 0.287018 0.152466
0.153992 0.287018 0.152466
0.364014 0.287018 0.152466
0.660248 0.287018 0.152466
1.000000 0.287018 0.152466
0.000000 0.385956 0.152466
0.152466 0.385956 0.152466
0.287018 0.385956 0.152466
0.385956 0.385956 0.152466
0.431396 0.385956 0.152466
0.412170 0.385956 0.152466
0.343964 0.385956 0.152466
0.249054 0.385956 0.152466
0.149750 0.385956 0.152466
0.068237 0.385956 0.152466
0.026947 0.385956 0.152466
0.048126 0.385956 0.152466
0.153992 0.385956 0.152466
0.364014 0.385956 0.152466
0.660248 0.385956 0.152466
1.000000 0.385956 0.152466
0.000000 0.431396 0.152466
0.152466 0.431396 0.152466
0.287018 0.431396 0.152466
0.385956 0.431396 0.152466
0.431396 0.431396 0.152466
0.412170 0.431396 0.152466
0.343964 0.431396 0.152466
0.249054 0.431396 0.152466
0.149750 0.431396 0.152466
0.068237 0.431396 0.152466
0.026947 0.431396 0.152466
0.048126 0.431396 0.152466
0.153992 0.431396 0.152466
0.364014 0.431396 0.152466
0.660248 0.431396 0.152466
1.000000 0.431396 0.152466
0.000000 0.412170 0.152466
0.152466 0.412170 0.152466
0.287018 0.412170 0.152466
0.385956 0.412170 0.152466
0.431396 0.412170 0.152466
0.412170 0.412170 0.152466
0.343964 0.412170 0.152466
0.249054 0.412170 0.152466
0.149750 0.412170 0.152466
0.068237 0.412170 0.152466
0.026947 0.412170 0.152466
0.048126 0.412170 0.152466
0.153992 0.412170 0.152466
0.364014 0.412170 0.152466
0.660248 0.412170 0.152466
1.000000 0.412170 0.152466
0.000000 0.343964 0.152466
0.152466 0.343964 0.152466
0.287018 0.343964 0.152466
0.385956 0.343964 0.152466
0.431396 0.343964 0.152466
0.412170 0.343964 0.152466
0.343964 0.343964 0.152466
0.249054 0.343964 0.152466
0.149750 0.343964 0.152466
0.068237 0.343964 0.152466
0.026947 0.343964 0.152466
0.048126 0.343964 0.152466
0.153992 0.343964 0.152466
0.364014 0.343964 0.152466
0.660248 0.343964 0.152466
1.000000 0.343964 0.152466
0.000000 0.249054 0.152466
0.152466 0.249054 0.152466
0.287018 0.249054 0.152466
0.385956 0.249054 0.152466
0.431396 0.249054 0.152466
0.412170 0.249054 0.152466
0.343964 0.249054 0.152466
0.249054 0.249054 0.152466
0.149750 0.249054 0.152466
0.068237 0.249054 0.152466
0.026947 0.249054 0.152466
0.048126 0.249054 0.152466
0.153992 0.249054 0.152466
0.364014 0.249054 0.152466
0.660248 0.249054 0.152466
1.000000 0.249054 0.152466
0.000000 0.149750 0.152466
0.152466 0.149750 0.152466
0.287018 0.149750 0.152466
0.385956 0.149750 0.152466
0.431396 0.149750 0.152466
0.412170 0.149750 0.152466
0.343964 0.149750 0.152466
0.249054 0.149750 0.152466
0.149750 0.149750 0.152466
0.068237 0.149750 0.152466
0.026947 0.149750 0.152466
0.048126 0.149750 0.152466
0.153992 0.149750 0.152466
0.364014 0.149750 0.152466
0.660248 0.149750 0.152466
1.000000 0.149750 0.152466
0.000000 0.068237 0.152466
0.152466 0.068237 0.152466
0.287018 0.068237 0.152466
0.385956 0.068237 0.152466
0.431396 0.068237 0.152466
0.412170 0.068237 0.152466
0.343964 0.068237 0.152466
0.249054 0.068237 0.152466
0.149750 0.068237 0.152466
0.068237 0.068237 0.152466
0.026947 0.068237 0.152466
0.048126 0.068237 0.152466
0.153992 0.068237 0.152466
0.364014 0.068237 0.152466
0.660248 0.068237 0.152466
1.000000 0.068237 0.152466
0.000000 0.026947 0.152466
0.152466 0.026947 0.152466
0.287018 0.026947 0.152466
0.385956 0.026947 0.152466
0.431396 0.026947 0.152466
0.412170 0.026947 0.152466
0.343964 0.026947 0.152466
0.249054 0.026947 0.152466
0.149750 0.026947 0.152466
0.068237 0.026947 0.152466
0.026947 0.026947 0.152466
0.048126 0.026947 0.152466
0.153992 0.026947 0.152466
0.364014 0.026947 0.152466
0.660248 0.026947 0.152466
1.000000 0.026947 0.152466
0.000000 0.048126 0.152466
0.152466 0.048126 0.152466
0.287018 0.048126 0.152466
0.385956 0.048126 0.152466
0.431396 0.048126 0.152466
0.412170 0.048126 0.152466
0.343964 0.048126 0.152466
0.249054 0.048126 0.152466
0.149750 0.048126 0.152466
0.068237 0.048126 0.152466
0.026947 0.048126 0.152466
0.048126 0.048126 0.152466
0.153992 0.048126 0.152466
0.364014 0.048126 0.152466
0.660248 0.048126 0.152466
1.000000 0.048126 0.152466
0.000000 0.153992 0.152466
0.152466 0.153992 0.152466
0.287018 0.153992 0.152466
0.385956 0.153992 0.152466
0.431396 0.153992 0.152466
0.412170 0.153992 0.152466
0.343964 0.153992 0.152466
0.249054 0.153992 0.152466
0.149750 0.153992 0.152466
0.068237 0.153992 0.152466
0.026947 0.153992 0.152466
0.048126 0.153992 0.152466
0.153992 0.153992 0.152466
0.364014 0.153992 0.152466
0.660248 0.153992 0.152466
1.000000 0.153992 0.152466
0.000000 0.364014 0.152466
0.152466 0.364014 0.152466
0.287018 0.364014 0.152466
0.385956 0.364014 0.152466
0.431396 0.364014 0.152466
0.412170 0.364014 0.152466
0.343964 0.364014 0.152466
0.249054 0.364014 0.152466
0.149750 0.364014 0.152466
0.068237 0.364014 0.152466
0.026947 0.364014 0.152466
0.048126 0.364014 0.152466
0.153992 0.364014 0.152466
0.364014 0.364014 0.152466
0.660248 0.364014 0.152466
1.000000 0.364014 0.152466
0.000000 0.660248 0.152466
0.152466 0.660248 0.152466
0.287018 0.660248 0.152466
0.385956 0.660248 0.152466
0.431396 0.660248 0.152466
0.412170 0.660248 0.152466
0.343964 0.660248 0.152466
0.249054 0.660248 0.152466
0.149750 0.660248 0.152466
0.068237 0.660248 0.152466
0.026947 0.660248 0.152466
0.048126 0.660248 0.152466
0.153992 0.660248 0.152466
0.364014 0.660248 0.152466
0.660248 0.660248 0.152466
1.000000 0.660248 0.152466
0.000000 1.000000 0.152466
0.152466 1.000000 0.152466
0.287018 1.000000 0.152466
0.385956 1.000000 0.152466
0.431396 1.000000 0.152466
0.412170 1.000000 0.152466
0.343964 1.000000 0.152466
0.249054 1.000000 0.152466
0.149750 1.000000 0.152466
0.068237 1.000000 0.152466
0.026947 1.000000 0.152466
0.048126 1.000000 0.152466
0.153992 1.000000 0.152466
0.364014 1.000000 0.152466
0.660248 1.000000 0.152466
1.000000 1.000000 0.152466
0.000000 0.000000 0.287018
0.152466 0.000000 0.287018
0.287018 0.000000 0.287018
0.385956 0.000000 0.287018
0.431396 0.000000 0.287018
0.412170 0.000000 0.287018
0.343964 0.000000 0.287018
0.249054 0.000000 0.287018
0.149750 0.000000 0.287018
0.068237 0.000000 0.287018
0.026947 0.000000 0.287018
0.048126 0.000000 0.287018
0.153992 0.000000 0.287018
0.364014 0.000000 0.287018
0.660248 0.000000 0.287018
1.000000 0.000000 0.287018
0.000000 0.152466 0.287018
0.152466 0.152466 0.287018
0.287018 0.152466 0.287018
0.385956 0.152466 0.287018
0.431396 0.152466 0.287018
0.412170 0.152466 0.287018
0.343964 0.152466 0.287018
0.249054 0.152466 0.287018
0.149750 0.152466 0.287018
0.068237 0.152466 0.287018
0.026947 0.152466 0.287018
0.048126 0.152466 0.287018
0.153992 0.152466 0.287018
0.364014 0.152466 0.287018
0.660248 0.152466 0.287018
1.000000 0.152466 0.287018
0.000000 0.287018 0.287018
0.152466 0.287018 0.287018
0.287018 0.287018 0.287018
0.385956 0.287018 0.287018
0.431396 0.287018 0.287018
0.412170 0.287018 0.287018
0.343964 0.287018 0.287018
0.249054 0.287018 0.287018
0.149750 0.287018 0.287018
0.068237 0.287018 0.287018
0.026947 0.287018 0.287018
0.048126 0.287018 0.287018
0.153992 0.287018 0.287018
0.364014 0.287018 0.287018
0.660248 0.287018 0.287018
1.000000 0.287018 0.287018
0.000000 0.385956 0.287018
0.152466 0.385956 0.287018
0.287018 0.385956 0.287018
0.385956 0.385956 0.287018
0.431396 0.385956 0.287018
0.412170 0.385956 0.287018
0.343964 0.385956 0.287018
0.249054 0.385956 0.287018
0.149750 0.385956 0.287018
0.068237 0.385956 0.287018
0.026947 0.385956 0.287018
0.048126 0.385956 0.287018
0.153992 0.385956 0.287018
0.364014 0.385956 0.287018
0.660248 0.385956 0.287018
1.000000 0.385956 0.287018
0.000000 0.431396 0.287018
0.152466 0.431396 0.287018
0.287018 0.431396 0.287018
0.385956 0.431396 0.287018
0.431396 0.431396 0.287018
0.412170 0.431396 0.287018
0.343964 0.431396 0.287018
0.249054 0.431396 0.287018
0.149750 0.431396 0.287018
0.068237 0.431396 0.287018
0.026947 0.431396 0.287018
0.048126 0.431396 0.287018
0.153992 0.431396 0.287018
0.364014 0.431396 0.287018
0.660248 0.431396 0.287018
1.000000 0.431396 0.287018
0.000000 0.412170 0.287018
0.152466 0.412170 0.287018
0.287018 0.412170 0.287018
0.385956 0.412170 0.287018
0.431396 0.412170 0.287018
0.412170 0.412170 0.287018
0.343964 0.412170 0.287018
0.249054 0.412170 0.287018
0.149750 0.412170 0.287018
0.068237 0.412170 0.287018
0.026947 0.412170 0.287018
0.048126 0.412170 0.287018
0.153992 0.412170 0.287018
0.364014 0.412170 0.287018
0.660248 0.412170 0.287018
1.000000 0.412170 0.287018
0.000000 0.343964 0.287018
0.152466 0.343964 0.287018
0.287018 0.343964 0.287018
0.385956 0.343964 0.287018
0.431396 0.343964 0.287018
0.412170 0.343964 0.287018
0.343964 0.343964 0.287018
0.249054 0.343964 0.287018
0.149750 0.343964 0.287018
0.068237 0.343964 0.287018
0.026947 0.343964 0.287018
0.048126 0.343964 0.287018
0.153992 0.343964 0.287018
0.364014 0.343964 0.287018
0.660248 0.343964 0.287018
1.000000 0.343964 0.287018
0.000000 0.249054 0.287018
0.152466 0.249054 0.287018
0.287018 0.249054 0.287018
0.385956 0.249054 0.287018
0.431396 0.249054 0.287018
0.412170 0.249054 0.287018
0.343964 0.249054 0.287018
0.249054 0.249054 0.287018
0.149750 0.249054 0.287018
0.068237 0.249054 0.287018
0.026947 0.249054 0.287018
0.048126 0.249054 0.287018
0.153992 0.249054 0.287018
0.364014 0.249054 0.287018
0.660248 0.249054 0.287018
1.000000 0.249054 0.287018
0.000000 0.149750 0.287018
0.152466 0.149750 0.287018
0.287018 0.149750 0.287018
0.385956 0.149750 0.287018
0.431396 0.149750 0.287018
0.412170 0.149750 0.287018
0.343964 0.149750 0.287018
0.249054 0.149750 0.287018
0.149750 0.149750 0.287018
0.068237 0.149750 0.287018
0.026947 0.149750 0.287018
0.048126 0.149750 0.287018
0.153992 0.149750 0.287018
0.364014 0.149750 0.287018
0.660248 0.149750 0.287018
1.000000 0.149750 0.287018
0.000000 0.068237 0.287018
0.152466 0.068237 0.287018
0.287018 0.068237 0.287018
0.385956 0.068237 0.287018
0.431396 0.068237 0.287018
0.412170 0.068237 0.287018
0.343964 0.068237 0.287018
0.249054 0.068237 0.287018
0.149750 0.068237 0.287018
0.068237 0.068237 0.287018
0.026947 0.068237 0.287018
0.048126 0.068237 0.287018
0.153992 0.068237 0.287018
0.364014 0.068237 0.287018
0.660248 0.068237 0.287018
1.000000 0.068237 0.287018
0.000000 0.026947 0.287018
0.152466 0.026947 0.287018
0.287018 0.026947 0.287018
0.385956 0.026947 0.287018
0.431396 0.026947 0.287018
0.412170 0.026947 0.287018
0.343964 0.026947 0.287018
0.249054 0.026947 0.287018
0.149750 0.026947 0.287018
0.068237 0.026947 0.287018
0.026947 0.026947 0.287018
0.048126 0.026947 0.287018
0.153992 0.026947 0.287018
0.364014 0.026947 0.287018
0.660248 0.026947 0.287018
1.000000 0.026947 0.287018
0.000000 0.048126 0.287018
0.152466 0.048126 0.287018
0.287018 0.048126 0.287018
0.385956 0.048126 0.287018
0.431396 0.048126 0.287018
0.412170 0.048126 0.287018
0.343964 0.048126 0.287018
0.249054 0.048126 0.287018
0.149750 0.048126 0.287018
0.068237 0.048126 0.287018
0.026947 0.048126 0.287018
0.048126 0.048126 0.287018
0.153992 0.048126 0.287018
0.364014 0.048126 0.287018
0.660248 0.048126 0.287018
1.000000 0.048126 0.287018
0.000000 0.153992 0.287018
0.152466 0.153992 0.287018
0.287018 0.153992 0.287018
0.385956 0.153992 0.287018
0.431396 0.153992 0.287018
0.412170 0.153992 0.287018
0.343964 0.153992 0.287018
0.249054 0.153992 0.287018
0.149750 0.153992 0.287018
0.068237 0.153992 0.287018
0.026947 0.153992 0.287018
0.048126 0.153992 0.287018
0.153992 0.153992 0.287018
0.364014 0.153992 0.287018
0.660248 0.153992 0.287018
1.000000 0.153992 0.287018
0.000000 0.364014 0.287018
0.152466 0.364014 0.287018
0.287018 0.364014 0.287018
0.385956 0.364014 0.287018
0.431396 0.364014 0.287018
0.412170 0.364014 0.287018
0.343964 0.364014 0.287018
0.249054 0.364014 0.287018
0.149750 0.364014 0.287018
0.068237 0.364014 0.287018
0.026947 0.364014 0.287018
0.048126 0.364014 0.287018
0.153992 0.364014 0.287018
0.364014 0.364014 0.287018
0.660248 0.364014 0.287018
1.000000 0.364014 0.287018
0.000000 0.660248 0.287018
0.152466 0.660248 0.287018
0.287018 0.660248 0.287018
0.385956 0.660248 0.287018
0.431396 0.660248 0.287018
0.412170 0.660248 0.287018
0.343964 0.660248 0.287018
0.249054 0.660248 0.287018
0.149750 0.660248 0.287018
0.068237 0.660248 0.287018
0.026947 0.660248 0.287018
0.048126 0.660248 0.287018
0.153992 0.660248 0.287018
0.364014 0.660248 0.287018
0.660248 0.660248 0.287018
1.000000 0.660248 0.287018
0.000000 1.000000 0.287018
0.152466 1.000000 0.287018
0.287018 1.000000 0.287018
0.385956 1.000000 0.287018
0.431396 1.000000 0.287018
0.412170 1.000000 0.287018
0.343964 1.000000 0.287018
0.249054 1.000000 0.287018
0.149750 1.000000 0.287018
0.068237 1.000000 0.287018
0.026947 1.000000 0.287018
0.048126 1.000000 0.287018
0.153992 1.000000 0.287018
0.364014 1.000000 0.287018
0.660248 1.000000 0.287018
1.000000 1.000000 0.287018
0.000000 0.000000 0.385956
0.152466 0.000000 0.385956
0.287018 0.000000 0.385956
0.385956 0.000000 0.385956
0.431396 0.000000 0.385956
0.412170 0.000000 0.385956
0.343964 0.000000 0.385956
0.249054 0.000000 0.385956
0.149750 0.000000 0.385956
0.068237 0.000000 0.385956
0.026947 0.000000 0.385956
0.048126 0.000000 0.385956
0.153992 0.000000 0.385956
0.364014 0.000000 0.385956
0.660248 0.000000 0.385956
1.000000 0.000000 0.385956
0.000000 0.152466 0.385956
0.152466 0.152466 0.385956
0.287018 0.152466 0.385956
0.385956 0.152466 0.385956
0.431396 0.152466 0.385956
0.412170 0.152466 0.385956
0.343964 0.152466 0.385956
0.249054 0.152466 0.385956
0.149750 0.152466 0.385956
0.068237 0.152466 0.385956
0.026947 0.152466 0.385956
0.048126 0.152466 0.385956
0.153992 0.152466 0.385956
0.364014 0.152466 0.385956
0.660248 0.152466 0.385956
1.000000 0.152466 0.385956
0.000000 0.287018 0.385956
0.152466 0.287018 0.385956
0.287018 0.287018 0.385956
0.385956 0.287018 0.385956
0.431396 0.287018 0.385956
0.412170 0.287018 0.385956
0.343964 0.287018 0.385956
0.249054 0.287018 0.385956
0.149750 0.287018 0.385956
0.068237 0.287018 0.385956
0.026947 0.287018 0.385956
0.048126 0.287018 0.385956
0.153992 0.287018 0.385956
0.364014 0.287018 0.385956
0.660248 0.287018 0.385956
1.000000 0.287018 0.385956
0.000000 0.385956 0.385956
0.152466 0.385956 0.385956
0.287018 0.385956 0.385956
0.385956 0.385956 0.385956
0.431396 0.385956 0.385956
0.412170 0.385956 0.385956
0.343964 0.385956 0.385956
0.249054 0.385956 0.385956
0.149750 0.385956 0.385956
0.068237 0.385956 0.385956
0.026947 0.385956 0.385956
0.048126 0.385956 0.385956
0.153992 0.385956 0.385956
0.364014 0.385956 0.385956
0.660248 0.385956 0.385956
1.000000 0.385956 0.385956
0.000000 0.431396 0.385956
0.152466 0.431396 0.385956
0.287018 0.431396 0.385956
0.385956 0.431396 0.385956
0.431396 0.431396 0.385956
0.412170 0.431396 0.385956
0.343964 0.431396 0.385956
0.249054 0.431396 0.385956
0.149750 0.431396 0.385956
0.068237 0.431396 0.385956
0.026947 0.431396 0.385956
0.048126 0.431396 0.385956
0.153992 0.431396 0.385956
0.364014 0.431396 0.385956
0.660248 0.431396 0.385956
1.000000 0.431396 0.385956
0.000000 0.412170 0.385956
0.152466 0.412170 0.385956
0.287018 0.412170 0.385956
0.385956 0.412170 0.385956
0.431396 0.412170 0.385956
0.412170 0.412170 0.385956
0.343964 0.412170 0.385956
0.249054 0.412170 0.385956
0.149750 0.412170 0.385956
0.068237 0.412170 0.385956
0.026947 0.412170 0.385956
0.048126 0.412170 0.385956
0.153992 0.412170 0.385956
0.364014 0.412170 0.385956
0.660248 0.412170 0.385956
1.000000 0.412170 0.385956
0.000000 0.343964 0.385956
0.152466 0.343964 0.385956
0.287018 0.343964 0.385956
0.385956 0.343964 0.385956
0.431396 0.343964 0.385956
0.412170 0.343964 0.385956
0.343964 0.343964 0.385956
0.249054 0.343964 0.385956
0.149750 0.343964 0.385956
0.068237 0.343964 0.385956
0.026947 0.343964 0.385956
0.048126 0.343964 0.385956
0.153992 0.343964 0.385956
0.364014 0.343964 0.385956
0.660248 0.343964 0.385956
1.000000 0.343964 0.385956
0.000000 0.249054 0.385956
0.152466 0.249054 0.385956
